X:1
T:Title
%%score { ( 1 3 ) | 2 }
L:1/8
M:4/4
K:F
V:1 treble nm="Grand Piano"
V:3 treble 
V:2 bass 
V:1
 z4 z2[Q:1/4=100] C>F | A2 A>A A2 F>A | c2 c>c c2 d>d | c2 A>G F2 A>A | [EG]4 z2 C>F | %5
 A2 A>A A2 F>A | c2 c>c c2 d>d | c2 A>F [EG]2 [EA]>[EG] |[M:3/4] F6 |[M:1/4] c>c |[M:4/4] c6 z2 | %11
 c6 z2 | G2 c>c =B2 AB | [Ec]2 [Ge]>[Fd] [Ec][GB][FA][GB] | c2 A>A A2 GF | %15
[M:9/8] [DF]2 [DB]- [DB]/[DB]/ [Fd]2- [Fd][Fd]>[Fd] |[M:4/4] [Fc]2 [FA]>[CF] [EG]2 [EA]>[EG] | %17
 [A,CF]6 z2 |] %18
V:2
 z4 z2 [F,A,]>[F,A,C] | [F,CF]2 [F,CF]>[F,CF] [F,CF]2 [F,A,C]>[F,CF] | %2
 [F,A,F]2 [F,A,F]>[F,A,F] [F,A,F]2 [F,B,F]>[F,B,F] | %3
 [F,A,F]2 [F,CF]>[F,B,F] [F,A,]2 [F,CF]>[F,CF] | [C,C]4 z2 [F,A,]>[F,A,C] | %5
 [F,CF]2 [F,CF]>[F,CF] [F,CF]2 [F,A,]>[F,CF] | [F,A,F]2 [F,A,F]>[F,A,F] [F,A,F]2 [F,B,F]>[F,B,F] | %7
 [F,A,F]2 [F,CF]>[F,A,] [C,C]2 [C,C]>[C,B,] |[M:3/4] [F,A,C]6 |[M:1/4] z2 | %10
[M:4/4] z2 [C,G,]>[C,G,] [C,G,]2 z2 | z2 [F,A,]>[F,A,] [F,A,]2 [F,CF]>[F,CF] | %12
 [G,CE]2 [G,EG]>[G,EG] [G,DF]2 [G,CF][G,DF] | [C,C]2 [C,C]>[C,C] [C,C][C,C][C,C][C,C] | %14
 [F,A,F]2 [F,CF]>[F,CF] [F,CF]2 [F,B,E][F,A,_E] | %15
[M:9/8] [B,,B,]2 [B,,F,]- [B,,F,]/[B,,F,]/ [B,,B,]2- [B,,B,][B,,B,]>[B,,B,] | %16
[M:4/4] [C,A,]2 [C,C]>[C,A,] [C,C]2 [C,C]>[C,B,] | [F,,F,]6 z2 |] %18
V:3
 x8 | x8 | x8 | x8 | x8 | x8 | x8 | x8 |[M:3/4] x6 |[M:1/4] x2 |[M:4/4] z2 E>E .E2 c>c | %11
 z2 F>F F2 A>A | x8 | x8 | x8 |[M:9/8] x9 |[M:4/4] x8 | x8 |] %18

